public/logo-stacked.svg

<svg width="105" height="37" viewBox="0 0 105 37" fill="none" xmlns="http://www.w3.org/2000/svg">
<path d="M8.14 14.88H13.82V9.32L21.78 0H15.56L11.14 5.14L6.8 0H0L8.14 9.28V14.88Z" fill="black" fill-opacity="0.87"/>
<path d="M22.3366 0V14.88H38.9566V11.16H27.9366V9.12H38.5766V5.5H27.9366V3.64H38.7966V0H22.3366Z" fill="black" fill-opacity="0.87"/>
<path d="M52.9373 8.76H47.9973L50.4373 3.64L52.9373 8.76ZM55.9173 14.88H62.1373L54.3573 0H46.7173L39.3573 14.88H45.1173L46.2573 12.48H54.7573L55.9173 14.88Z" fill="black" fill-opacity="0.87"/>
<path d="M68.4658 3.62H74.9858C76.2658 3.62 76.7058 4.18 76.7058 4.88V4.9C76.7058 5.62 76.2458 6.18 74.9858 6.18H68.4658V3.62ZM68.4658 9.78H73.9058C76.1458 9.78 76.9258 10.66 76.9258 12.36V14.1C76.9258 14.52 76.9658 14.72 77.1058 14.88H82.9058V14.78C82.7658 14.52 82.6258 14.14 82.6258 13.1V10.9C82.6258 8.98 81.4058 7.78 79.5658 7.36C80.6858 7.1 82.5658 6.2 82.5658 4.04V3.82C82.5658 1.4 80.6458 0 76.3058 0H62.7858V14.88H68.4658V9.78Z" fill="black" fill-opacity="0.87"/>
<path d="M84.192 0V14.88H89.832V5.86L99.152 14.88H104.832V0H99.192V8.46L90.552 0H84.192Z" fill="black" fill-opacity="0.87"/>
<path d="M6.9 35.8807V30.1207H5.625V28.9807H6.9V28.0657C6.9 27.3157 7.115 26.7607 7.545 26.4007C7.985 26.0307 8.58 25.8457 9.33 25.8457H10.395V26.9857H9.45C9 26.9857 8.675 27.1007 8.475 27.3307C8.285 27.5507 8.19 27.8857 8.19 28.3357V28.9807H10.395V30.1207H8.19V35.8807H6.9Z" fill="black" fill-opacity="0.87"/>
<path d="M20.7081 28.9807V35.8807H19.4181V28.9807H20.7081ZM19.3131 25.8457H20.8131V27.4057H19.3131V25.8457Z" fill="black" fill-opacity="0.87"/>
<path d="M34.2531 28.7857C34.7231 28.7857 35.1431 28.8607 35.5131 29.0107C35.8931 29.1607 36.2081 29.3707 36.4581 29.6407C36.7181 29.9107 36.9131 30.2307 37.0431 30.6007C37.1831 30.9707 37.2531 31.3757 37.2531 31.8157V35.8807H35.9631V31.9207C35.9631 31.3507 35.8131 30.8857 35.5131 30.5257C35.2131 30.1657 34.7481 29.9857 34.1181 29.9857C33.8381 29.9857 33.5631 30.0407 33.2931 30.1507C33.0331 30.2507 32.8031 30.4007 32.6031 30.6007C32.4031 30.7907 32.2381 31.0307 32.1081 31.3207C31.9881 31.6107 31.9281 31.9357 31.9281 32.2957V35.8807H30.6381V28.9807H31.9281V29.7307C32.1581 29.4507 32.4681 29.2257 32.8581 29.0557C33.2481 28.8757 33.7131 28.7857 34.2531 28.7857Z" fill="black" fill-opacity="0.87"/>
<path d="M49.7604 28.7857C50.2504 28.7857 50.6954 28.8457 51.0954 28.9657C51.5054 29.0857 51.8554 29.2607 52.1454 29.4907C52.4354 29.7207 52.6604 30.0057 52.8204 30.3457C52.9804 30.6757 53.0604 31.0557 53.0604 31.4857V35.8807H51.7704V35.1307C51.5004 35.4207 51.1654 35.6507 50.7654 35.8207C50.3754 35.9907 49.9104 36.0757 49.3704 36.0757C48.9604 36.0757 48.5854 36.0257 48.2454 35.9257C47.9054 35.8357 47.6104 35.6957 47.3604 35.5057C47.1104 35.3157 46.9154 35.0807 46.7754 34.8007C46.6354 34.5107 46.5654 34.1707 46.5654 33.7807C46.5654 33.3607 46.6454 33.0107 46.8054 32.7307C46.9754 32.4407 47.2004 32.2107 47.4804 32.0407C47.7604 31.8607 48.0804 31.7357 48.4404 31.6657C48.8104 31.5857 49.1954 31.5457 49.5954 31.5457H51.7704C51.7704 30.9757 51.5754 30.5757 51.1854 30.3457C50.8054 30.1057 50.3304 29.9857 49.7604 29.9857C49.3404 29.9857 48.9454 30.0707 48.5754 30.2407C48.2154 30.4107 47.9654 30.6607 47.8254 30.9907H46.4004C46.5004 30.6307 46.6554 30.3157 46.8654 30.0457C47.0854 29.7757 47.3404 29.5457 47.6304 29.3557C47.9304 29.1657 48.2604 29.0257 48.6204 28.9357C48.9804 28.8357 49.3604 28.7857 49.7604 28.7857ZM51.7704 32.6707H49.5804C49.0404 32.6707 48.6154 32.7607 48.3054 32.9407C48.0054 33.1207 47.8554 33.4007 47.8554 33.7807C47.8554 34.1607 48.0054 34.4407 48.3054 34.6207C48.6054 34.7907 49.0054 34.8757 49.5054 34.8757C50.2054 34.8757 50.7554 34.7157 51.1554 34.3957C51.5654 34.0657 51.7704 33.6407 51.7704 33.1207V32.6707Z" fill="black" fill-opacity="0.87"/>
<path d="M66.4211 28.7857C66.8911 28.7857 67.3111 28.8607 67.6811 29.0107C68.0611 29.1607 68.3761 29.3707 68.6261 29.6407C68.8861 29.9107 69.0811 30.2307 69.2111 30.6007C69.3511 30.9707 69.4211 31.3757 69.4211 31.8157V35.8807H68.1311V31.9207C68.1311 31.3507 67.9811 30.8857 67.6811 30.5257C67.3811 30.1657 66.9161 29.9857 66.2861 29.9857C66.0061 29.9857 65.7311 30.0407 65.4611 30.1507C65.2011 30.2507 64.9711 30.4007 64.7711 30.6007C64.5711 30.7907 64.4061 31.0307 64.2761 31.3207C64.1561 31.6107 64.0961 31.9357 64.0961 32.2957V35.8807H62.8061V28.9807H64.0961V29.7307C64.3261 29.4507 64.6361 29.2257 65.0261 29.0557C65.4161 28.8757 65.8811 28.7857 66.4211 28.7857Z" fill="black" fill-opacity="0.87"/>
<path d="M84.1634 30.9907C83.9834 30.6807 83.7334 30.4357 83.4134 30.2557C83.0934 30.0757 82.7284 29.9857 82.3184 29.9857C81.9784 29.9857 81.6684 30.0507 81.3884 30.1807C81.1084 30.3007 80.8634 30.4707 80.6534 30.6907C80.4534 30.9107 80.2934 31.1707 80.1734 31.4707C80.0634 31.7707 80.0084 32.0907 80.0084 32.4307C80.0084 32.7707 80.0634 33.0907 80.1734 33.3907C80.2934 33.6907 80.4534 33.9507 80.6534 34.1707C80.8634 34.3907 81.1084 34.5657 81.3884 34.6957C81.6684 34.8157 81.9784 34.8757 82.3184 34.8757C82.7284 34.8757 83.0934 34.7857 83.4134 34.6057C83.7334 34.4257 83.9834 34.1807 84.1634 33.8707H85.5734C85.3234 34.5407 84.9084 35.0757 84.3284 35.4757C83.7584 35.8757 83.0884 36.0757 82.3184 36.0757C81.8084 36.0757 81.3334 35.9857 80.8934 35.8057C80.4534 35.6157 80.0734 35.3607 79.7534 35.0407C79.4334 34.7107 79.1784 34.3257 78.9884 33.8857C78.8084 33.4357 78.7184 32.9507 78.7184 32.4307C78.7184 31.9107 78.8084 31.4307 78.9884 30.9907C79.1784 30.5407 79.4334 30.1557 79.7534 29.8357C80.0734 29.5057 80.4534 29.2507 80.8934 29.0707C81.3334 28.8807 81.8084 28.7857 82.3184 28.7857C83.0884 28.7857 83.7584 28.9857 84.3284 29.3857C84.9084 29.7857 85.3234 30.3207 85.5734 30.9907H84.1634Z" fill="black" fill-opacity="0.87"/>
<path d="M98.1097 34.8757C98.5197 34.8757 98.8797 34.8007 99.1897 34.6507C99.5097 34.4907 99.7597 34.2557 99.9397 33.9457H101.335C101.095 34.6157 100.685 35.1407 100.105 35.5207C99.5347 35.8907 98.8697 36.0757 98.1097 36.0757C97.5897 36.0757 97.1097 35.9857 96.6697 35.8057C96.2297 35.6257 95.8447 35.3757 95.5147 35.0557C95.1947 34.7257 94.9447 34.3357 94.7647 33.8857C94.5847 33.4357 94.4947 32.9457 94.4947 32.4157C94.4947 31.8957 94.5797 31.4157 94.7497 30.9757C94.9297 30.5357 95.1747 30.1557 95.4847 29.8357C95.7947 29.5057 96.1647 29.2507 96.5947 29.0707C97.0347 28.8807 97.5147 28.7857 98.0347 28.7857C98.5247 28.7857 98.9747 28.8807 99.3847 29.0707C99.8047 29.2507 100.165 29.5007 100.465 29.8207C100.765 30.1407 101 30.5207 101.17 30.9607C101.34 31.3907 101.425 31.8507 101.425 32.3407C101.425 32.4207 101.425 32.5107 101.425 32.6107C101.425 32.7107 101.415 32.8107 101.395 32.9107H95.8297C95.8697 33.1907 95.9547 33.4507 96.0847 33.6907C96.2147 33.9307 96.3797 34.1407 96.5797 34.3207C96.7797 34.4907 97.0097 34.6257 97.2697 34.7257C97.5297 34.8257 97.8097 34.8757 98.1097 34.8757ZM98.0347 29.9857C97.4347 29.9857 96.9397 30.1507 96.5497 30.4807C96.1597 30.8107 95.9247 31.2457 95.8447 31.7857H100.075C99.9947 31.2457 99.7747 30.8107 99.4147 30.4807C99.0647 30.1507 98.6047 29.9857 98.0347 29.9857Z" fill="black" fill-opacity="0.87"/>
</svg>

<?xml version="1.0" encoding="utf-8"?>
<!-- Generator: Adobe Illustrator 25.4.1, SVG Export Plug-In . SVG Version: 6.00 Build 0)  -->
<svg version="1.1" id="Layer_1" xmlns="http://www.w3.org/2000/svg" xmlns:xlink="http://www.w3.org/1999/xlink" x="0px" y="0px"
	 viewBox="0 0 105 37" style="enable-background:new 0 0 105 37;" xml:space="preserve">
<style type="text/css">
	.st0{fill:#686C7A;fill-opacity:0.87;}
</style>
<path class="st0" d="M8.1,14.9h5.7V9.3l8-9.3h-6.2l-4.4,5.1L6.8,0H0l8.1,9.3V14.9z"/>
<path class="st0" d="M22.3,0v14.9H39v-3.7h-11v-2h10.6V5.5H27.9V3.6h10.9V0H22.3z"/>
<path class="st0" d="M52.9,8.8H48l2.4-5.1L52.9,8.8z M55.9,14.9h6.2L54.4,0h-7.6l-7.4,14.9h5.8l1.1-2.4h8.5L55.9,14.9z"/>
<path class="st0" d="M68.5,3.6H75c1.3,0,1.7,0.6,1.7,1.3v0c0,0.7-0.5,1.3-1.7,1.3h-6.5V3.6z M68.5,9.8h5.4c2.2,0,3,0.9,3,2.6v1.7
	c0,0.4,0,0.6,0.2,0.8h5.8v-0.1c-0.1-0.3-0.3-0.6-0.3-1.7v-2.2c0-1.9-1.2-3.1-3.1-3.5c1.1-0.3,3-1.2,3-3.3V3.8c0-2.4-1.9-3.8-6.3-3.8
	H62.8v14.9h5.7V9.8z"/>
<path class="st0" d="M84.2,0v14.9h5.6v-9l9.3,9h5.7V0h-5.6v8.5L90.6,0H84.2z"/>
<path class="st0" d="M6.9,35.9v-5.8H5.6V29h1.3v-0.9c0-0.8,0.2-1.3,0.6-1.7c0.4-0.4,1-0.6,1.8-0.6h1.1V27H9.4c-0.4,0-0.8,0.1-1,0.3
	c-0.2,0.2-0.3,0.6-0.3,1V29h2.2v1.1H8.2v5.8H6.9z"/>
<path class="st0" d="M20.7,29v6.9h-1.3V29H20.7z M19.3,25.8h1.5v1.6h-1.5V25.8z"/>
<path class="st0" d="M34.3,28.8c0.5,0,0.9,0.1,1.3,0.2c0.4,0.1,0.7,0.4,0.9,0.6c0.3,0.3,0.5,0.6,0.6,1c0.1,0.4,0.2,0.8,0.2,1.2v4.1
	H36v-4c0-0.6-0.2-1-0.5-1.4c-0.3-0.4-0.8-0.5-1.4-0.5c-0.3,0-0.6,0.1-0.8,0.2c-0.3,0.1-0.5,0.2-0.7,0.5c-0.2,0.2-0.4,0.4-0.5,0.7
	c-0.1,0.3-0.2,0.6-0.2,1v3.6h-1.3V29h1.3v0.8c0.2-0.3,0.5-0.5,0.9-0.7C33.2,28.9,33.7,28.8,34.3,28.8z"/>
<path class="st0" d="M49.8,28.8c0.5,0,0.9,0.1,1.3,0.2c0.4,0.1,0.8,0.3,1,0.5c0.3,0.2,0.5,0.5,0.7,0.9c0.2,0.3,0.2,0.7,0.2,1.1v4.4
	h-1.3v-0.8c-0.3,0.3-0.6,0.5-1,0.7c-0.4,0.2-0.9,0.3-1.4,0.3c-0.4,0-0.8,0-1.1-0.1c-0.3-0.1-0.6-0.2-0.9-0.4
	c-0.2-0.2-0.4-0.4-0.6-0.7c-0.1-0.3-0.2-0.6-0.2-1c0-0.4,0.1-0.8,0.2-1c0.2-0.3,0.4-0.5,0.7-0.7c0.3-0.2,0.6-0.3,1-0.4
	c0.4-0.1,0.8-0.1,1.2-0.1h2.2c0-0.6-0.2-1-0.6-1.2c-0.4-0.2-0.9-0.4-1.4-0.4c-0.4,0-0.8,0.1-1.2,0.3c-0.4,0.2-0.6,0.4-0.8,0.8h-1.4
	c0.1-0.4,0.3-0.7,0.5-0.9c0.2-0.3,0.5-0.5,0.8-0.7c0.3-0.2,0.6-0.3,1-0.4C49,28.8,49.4,28.8,49.8,28.8z M51.8,32.7h-2.2
	c-0.5,0-1,0.1-1.3,0.3c-0.3,0.2-0.5,0.5-0.5,0.8s0.2,0.7,0.5,0.8c0.3,0.2,0.7,0.3,1.2,0.3c0.7,0,1.2-0.2,1.6-0.5
	c0.4-0.3,0.6-0.8,0.6-1.3V32.7z"/>
<path class="st0" d="M66.4,28.8c0.5,0,0.9,0.1,1.3,0.2c0.4,0.1,0.7,0.4,0.9,0.6c0.3,0.3,0.5,0.6,0.6,1c0.1,0.4,0.2,0.8,0.2,1.2v4.1
	h-1.3v-4c0-0.6-0.2-1-0.5-1.4c-0.3-0.4-0.8-0.5-1.4-0.5c-0.3,0-0.6,0.1-0.8,0.2c-0.3,0.1-0.5,0.2-0.7,0.5c-0.2,0.2-0.4,0.4-0.5,0.7
	c-0.1,0.3-0.2,0.6-0.2,1v3.6h-1.3V29h1.3v0.8c0.2-0.3,0.5-0.5,0.9-0.7C65.4,28.9,65.9,28.8,66.4,28.8z"/>
<path class="st0" d="M84.2,31c-0.2-0.3-0.4-0.6-0.8-0.7c-0.3-0.2-0.7-0.3-1.1-0.3c-0.3,0-0.6,0.1-0.9,0.2c-0.3,0.1-0.5,0.3-0.7,0.5
	c-0.2,0.2-0.4,0.5-0.5,0.8c-0.1,0.3-0.2,0.6-0.2,1s0.1,0.7,0.2,1c0.1,0.3,0.3,0.6,0.5,0.8c0.2,0.2,0.5,0.4,0.7,0.5
	c0.3,0.1,0.6,0.2,0.9,0.2c0.4,0,0.8-0.1,1.1-0.3s0.6-0.4,0.8-0.7h1.4c-0.2,0.7-0.7,1.2-1.2,1.6c-0.6,0.4-1.2,0.6-2,0.6
	c-0.5,0-1-0.1-1.4-0.3c-0.4-0.2-0.8-0.4-1.1-0.8c-0.3-0.3-0.6-0.7-0.8-1.2c-0.2-0.5-0.3-0.9-0.3-1.5c0-0.5,0.1-1,0.3-1.4
	c0.2-0.4,0.4-0.8,0.8-1.2c0.3-0.3,0.7-0.6,1.1-0.8c0.4-0.2,0.9-0.3,1.4-0.3c0.8,0,1.4,0.2,2,0.6c0.6,0.4,1,0.9,1.2,1.6H84.2z"/>
<path class="st0" d="M98.1,34.9c0.4,0,0.8-0.1,1.1-0.2c0.3-0.2,0.6-0.4,0.8-0.7h1.4c-0.2,0.7-0.7,1.2-1.2,1.6
	c-0.6,0.4-1.2,0.6-2,0.6c-0.5,0-1-0.1-1.4-0.3c-0.4-0.2-0.8-0.4-1.2-0.8c-0.3-0.3-0.6-0.7-0.8-1.2s-0.3-0.9-0.3-1.5
	c0-0.5,0.1-1,0.3-1.4c0.2-0.4,0.4-0.8,0.7-1.1c0.3-0.3,0.7-0.6,1.1-0.8c0.4-0.2,0.9-0.3,1.4-0.3c0.5,0,0.9,0.1,1.3,0.3
	c0.4,0.2,0.8,0.4,1.1,0.8c0.3,0.3,0.5,0.7,0.7,1.1c0.2,0.4,0.3,0.9,0.3,1.4c0,0.1,0,0.2,0,0.3c0,0.1,0,0.2,0,0.3h-5.6
	c0,0.3,0.1,0.5,0.3,0.8c0.1,0.2,0.3,0.5,0.5,0.6c0.2,0.2,0.4,0.3,0.7,0.4S97.8,34.9,98.1,34.9z M98,30c-0.6,0-1.1,0.2-1.5,0.5
	s-0.6,0.8-0.7,1.3h4.2c-0.1-0.5-0.3-1-0.7-1.3C99.1,30.2,98.6,30,98,30z"/>
</svg>
